X: 179
T: Zhai cai Xiaodiao
%%abc-version 2.0
%%abcx-abcm2ps-target-version 5.9.1 (29 Sep 2008)
%%abc-creator hum2abc beta
%%abcx-conversion-date 2013/10/02 07:44:28
%%abc-edited-by Helmut Schaffrath
%%humdrum-veritas 1167574576
%%humdrum-veritas-data 1645794242
%%continueall 1
%%barnumbers 0
L: 1/16
M: 2/4
K: Bb
c c2 c c2 B2 [I:setbarnb 1]| 
d d d B c d B2 | 
d c d B c2 d2 | 
d c d f G B G2 | 
B2 G B c2 G B | 
c d G2 B2 G2 | 
d d d Bc4 | 
B B c GG4 | 
d c d c d G B2 | 
B G B GF4 | 
B G D F G G B G | 
B B D B D B G B | 
D F B G B D G B | 
Z2 | 
d8 | 
B8 | 
G2 G B c z G z | 
F2z6 |]  



